resources/svg/sip-line.svg

<svg fill="currentColor" viewBox="0 0 24 24" xmlns="http://www.w3.org/2000/svg"><path d="M6.45711 18.954L15.0208 10.3903L13.6066 8.97608L5.04289 17.5398L6.45711 18.954ZM12.1924 7.56186L10.7782 6.14765L12.1924 4.73344L13.9602 6.5012L16.7886 3.67278C17.1791 3.28225 17.8123 3.28225 18.2028 3.67278L20.3241 5.7941C20.7146 6.18462 20.7146 6.81779 20.3241 7.20831L17.4957 10.0367L19.2635 11.8045L17.8492 13.2187L16.435 11.8045L7.24264 20.9969H3V16.7543L12.1924 7.56186Z"/></svg>

<svg xmlns="http://www.w3.org/2000/svg" viewBox="0 0 24 24" fill="currentColor">
    <g>
        <path fill="none" d="M0 0h24v24H0z"/>
        <path d="M6.457 18.957l8.564-8.564-1.414-1.414-8.564 8.564 1.414 1.414zm5.735-11.392l-1.414-1.414 1.414-1.414 1.768 1.767 2.829-2.828a1 1 0 0 1 1.414 0l2.121 2.121a1 1 0 0 1 0 1.414l-2.828 2.829 1.767 1.768-1.414 1.414-1.414-1.414L7.243 21H3v-4.243l9.192-9.192z"/>
    </g>
</svg>
